X: 10251
Q: "Allegretto."
M: 3/4
L: 1/8
K: G
!segno!|: !p!DGA |\
"^>"B3GBc | d3eBe | (dc)AFAe | (dB) GD GA |\
!f!G2 |\
"_>"g4fe | (ed).dz"_>"e2 | (dcc)zd2 | (cB)BzG2 |
g4 (fe) | (ed)dze2 | (d^c).cz BA | d2zAfA |\
e3A^cA | d3AfA | e3A^cA | (de^cede) |\
(=cdBdAd) | G2!segno!z2 "^D.C.":|
g4fe | (ed)dz"_>"e2 | (dc)cz"_>"d2 | (cB)B2G2 |\
"_>"g4fe | (ed)d2e2 | (dc)c2f2 | g4z2 |]


